X: 155
T: A Deanadh Im
R: reel
M: 4/4
K: Adorian
eA A/A/A GAAd|eA A/A/A GBBd|eA A/A/A GAAd|eBdB BAAd|
eA A/A/A GAAd|eA A/A/A dBBd|eA A/A/A GAAd|eBdB BAA2||
e3 f gefd|edBd BGBd|e3 f gefd|egfd feed|
e3 f gefd|edBd BGBd|e2 dB BABd|gefd e2 ea||

